X:1
T:O Praise the Lord, I’m Saved
T:O Praise the Lord, I’m Saved
T:Samuel Boltz Ellenberger, 1881
T:Caleb Jarvis Taylor (1763-1817)
T:Public Domain Courtesy of the Cyber Hymnal™
T:Public Domain Courtesy of the Cyber Hymnal™
C:Samuel Boltz Ellenberger, 1881
Z:Public Domain
Z:Courtesy of the Cyber Hymnal™
%%score ( 1 2 ) ( 3 4 )
L:1/8
Q:1/4=80
M:6/8
K:G
V:1 treble 
V:2 treble 
V:3 bass 
V:4 bass 
V:1
 G | [GB]>[GB][GB] [GB][GA][DG] | [DG]>[DF][^CE] D2 D | [DG]>[DG][DG] [GB][Gd][GB] | %4
w: 1.~O|Je- sus, my Sav- ior, I|know Thou art mine; For|Thee all the plea- sures of|
w: 2.~Thou|art my rich trea- sure, my|joy and my love, No|rich- er’s pos- sessed by the|
w: 3.~O|Je- sus, my Sav- ior, in|Thee I am blest; My|life and my trea- sure, my|
w: 4.~Thy|Spir- it first taught me to|know I was blind; And|taught me the way of sal-|
w: 5.~In|vain I at- tempt to des-|cribe what I feel; The|lan- guage of mor- tals for-|
w: 6.~Tho’|weak and des- pis- èd, by|faith I now stand, Pre-|served and sup- port- ed by|
w: 7.~I|find Him in sing- ing, I|find Him in prayer; In|sweet med- i- ta- tion, He|
w: 8.~When|hap- py in Christ, I re-|gard not the proud, Tho’|sin- ners des- pise me for|
 [FA]>[GB][FA] [FA]2 [GB] | [DG]>[DG][CE] [Ec][Ec][Ge] | [Fd]>[FA][FA] [GB]2 [Gc] | %7
w: earth I re- sign; Of|ob- jects most pleas- ing, I|love Thee the best; With-|
w: an- gels a- bove; For|Thee all the plea- sures of|sense I’ll fore- go And|
w: joy and my rest; Thy|grace be my theme, and Thy|name be my song; Thy|
w: va- tion to find; And|when I was sink- ing in|dread- ful des- pair, My|
w: ev- er must fail; My|Je- sus is pre- cious, my|soul’s in a flame; I’m|
w: Hea- ven’s kind hand; In|Je- sus sup- port- ed, I’ll|bless His dear name, Re-|
w: al- ways is near; My|con- stant com- pan- ion, oh,|may we not part; All|
w: sing- ing so loud; For|death will soon call me, and|then I shall fly, To|
 [GB]>[GA]G [GB]<[GB][DG] | [DA]>[DB][CA] !fermata![B,G]2 ||"^Refrain" [Dd] | %10
w: out Thee I’m wretch- ed, but|with Thee I’m blest.||
w: wan- der a pil- grim dis-|tress- èd be- low.||
w: love doth in- spi- re my|heart and my tongue.||
w: Je- sus re- lieved me, and|bid me not fear.||
w: raised in- to rap- tures while|prais- ing His name.|O|
w: gard- less of cen- sure, of|praise or of blame.||
w: glo- ry to Je- sus who|dwells in my heart.||
w: praise my dear Je- sus, in|man- sions on high.||
 [Gd]2 [GB] [GB]2 [DG] | [DG]3- [DG]2 [DG] | [GB]>[GA]G [DG]>[DF][^CE] | D3- D2 [Bd] | %14
w: ||||
w: ||||
w: ||||
w: ||||
w: praise the Lord, I’m|saved, * I’m|saved by the blood of the|Lamb; * I’m|
w: ||||
w: ||||
w: ||||
 [Bd]3- [Bd]2 [DG] | [EG]3- [EG]2 [CE] | [B,D]2 [DB] [DB]2 [CA] | [B,G]3- [B,G]4 |] %18
w: ||||
w: ||||
w: ||||
w: ||||
w: saved, * I’m|saved, * O|praise the Lord, I’m|saved. *|
w: ||||
w: ||||
w: ||||
V:2
 G | x6 | x3 D2 D | x6 | x6 | x6 | x6 | x2 G x3 | x5 || x | x6 | x6 | x2 G x3 | D3- D2 x | x6 | %15
 x6 | x6 | x7 |] %18
V:3
 [G,B,] | [G,D]>[G,D][G,D] [G,D][G,C][G,B,] | [G,,B,]>[A,,A,][A,,G,] [D,F,]2 [B,,G,] | %3
 [G,,B,]>[G,,B,][G,,B,] [G,,D][B,,D][G,,D] | [D,D]>[D,D][D,D] [D,D]2 [G,D] | %5
 [G,B,]>[B,,G,][C,G,] [C,G,][C,G,][C,C] | [D,A,]>[D,D][D,D] [G,D]2 [G,E] | %7
 [G,D]>[G,C][G,B,] [G,D]<[G,D][G,B,] | [D,F,]>[D,G,][D,F,] G,2 || [G,B,] | %10
 [G,B,]2 [G,D] [G,D]2 [G,B,] | [G,B,]3- [G,B,]2 [G,B,] | %12
 [G,,D]>[G,,C][G,,B,] [G,,B,]>[A,,A,][A,,G,] | [D,F,]3- [D,F,]2 [G,,G,] | %14
 [G,,G,]3- [G,,G,]2 [B,,G,] | [C,C]3- [C,C]2 [C,G,] | [D,G,]2 [D,G,] [D,F,]2 [D,F,] | %17
 [G,,G,]3- [G,,G,]4 |] %18
V:4
 x | x6 | x6 | x6 | x6 | x6 | x6 | x6 | x3 G,2 || x | x6 | x6 | x6 | x6 | x6 | x6 | x6 | x7 |] %18

